resources/svg/whatsapp.svg

<svg xmlns="http://www.w3.org/2000/svg" viewBox="0 0 15 15" fill="currentColor"><path d="M5 4.76774C5.3009 4.57637 5.70204 4.75358 5.76107 5.10774L5.90051 5.94441C5.93286 6.13849 5.84837 6.33349 5.68466 6.44263L5.18366 6.77664C5.06414 6.37192 5 5.94345 5 5.5V4.76774Z" fill="black"/><path d="M9.5 10C9.05655 10 8.62808 9.93586 8.22337 9.81634L8.55737 9.31534C8.66651 9.15163 8.86152 9.06714 9.0556 9.09949L9.89227 9.23894C10.2464 9.29796 10.4236 9.6991 10.2323 10H9.5Z" fill="black"/><path fill-rule="evenodd" clip-rule="evenodd" d="M1.37898e-05 7.5C1.37898e-05 3.35786 3.35788 0 7.50001 0C11.6421 0 15 3.35786 15 7.5C15 11.6421 11.6421 15 7.50001 15C5.9241 15 4.46057 14.5134 3.25306 13.6825L0.723621 14.9472C0.531126 15.0435 0.298641 15.0057 0.14646 14.8536C-0.00571975 14.7014 -0.043447 14.4689 0.0528002 14.2764L1.31752 11.7469C0.486584 10.5394 1.37898e-05 9.07592 1.37898e-05 7.5ZM4.22919 4.07962L4.43582 3.94186C5.3415 3.33808 6.56851 3.86966 6.74746 4.94334L6.88691 5.78001C6.98394 6.36224 6.7305 6.94726 6.23936 7.27468L5.58114 7.7135C5.98392 8.42508 6.57492 9.01608 7.2865 9.41887L7.72532 8.76064C8.05274 8.26951 8.63776 8.01606 9.22 8.1131L10.0567 8.25254C11.1303 8.43149 11.6619 9.65851 11.0581 10.5642L10.9201 10.7712C10.8311 10.9089 10.6762 11 10.5 11H9.5C6.46243 11 4 8.53757 4 5.5V4.5C4 4.32366 4.09129 4.16864 4.22919 4.07962Z" fill="black"/></svg>

<svg xmlns="http://www.w3.org/2000/svg" viewBox="0 0 15 15" fill="currentColor"><path d="M5 4.768a.5.5 0 01.761.34l.14.836a.5.5 0 01-.216.499l-.501.334A4.501 4.501 0 015 5.5v-.732zM9.5 10a4.5 4.5 0 01-1.277-.184l.334-.5a.5.5 0 01.499-.217l.836.14a.5.5 0 01.34.761H9.5z" fill="currentColor"/><path fill-rule="evenodd" clip-rule="evenodd" d="M0 7.5a7.5 7.5 0 113.253 6.182l-2.53 1.265a.5.5 0 01-.67-.67l1.265-2.53A7.467 7.467 0 010 7.5zm4.23-3.42l.206-.138a1.5 1.5 0 012.311 1.001l.14.837a1.5 1.5 0 01-.648 1.495l-.658.438A4.522 4.522 0 007.286 9.42l.44-.658a1.5 1.5 0 011.494-.648l.837.14a1.5 1.5 0 011.001 2.311l-.138.207a.5.5 0 01-.42.229h-1A5.5 5.5 0 014 5.5v-1a.5.5 0 01.23-.42z" fill="currentColor"/></svg>
